packages/core/src/svgs/tokens/mono/2DAI.svg

<svg width="24" height="24" viewBox="0 0 24 24" fill="none" xmlns="http://www.w3.org/2000/svg">
<path d="M20.6045 9.44189H21.9999V16.4185H20.6045V9.44189Z" fill="white"/>
<path d="M19.6742 13.1627L16.1858 7.58142L12.6975 13.1627H14.3162L16.1858 10.1721L18.0556 13.1627H19.6742Z" fill="white"/>
<path d="M14.1302 16.4184L15.3535 14.0185H17.0186L18.2418 16.4184L20.1395 12.6975H12.2327L14.1302 16.4184Z" fill="white"/>
<path fill-rule="evenodd" clip-rule="evenodd" d="M8.04666 11.6697V13.8092C8.07456 13.9022 8.23271 14.0929 8.67456 14.0929C9.21874 14.0929 9.90709 13.6651 9.90709 12.7162C9.90709 11.7721 8.91176 11.3022 8.44665 11.3022H8.4048C8.35715 11.3029 8.3101 11.3129 8.26631 11.3317C8.22253 11.3504 8.18287 11.3777 8.14962 11.4117C8.11636 11.4459 8.09015 11.4863 8.07249 11.5305C8.05482 11.5748 8.04604 11.6221 8.04666 11.6697ZM8.32572 11.9255V13.5302C8.34433 13.6045 8.46061 13.7487 8.76757 13.7487C9.15362 13.7487 9.63733 13.4232 9.63733 12.7116C9.63733 12 8.93966 11.6465 8.60479 11.6465H8.57688C8.43735 11.6465 8.32572 11.7721 8.32572 11.9255Z" fill="white"/>
<path fill-rule="evenodd" clip-rule="evenodd" d="M2 11.172L3.39532 10.3721H5.18135L6.18598 11.3395V12.9023C6.07901 13.0093 5.94878 13.1069 5.8232 13.2C5.62785 13.3487 5.45111 13.4836 5.38599 13.6279H6.18598V15.4883H2.54882L2 15.2324V14.2092C2.62324 13.7628 3.91625 12.7674 4.13485 12.3673C4.02787 12.3302 3.27439 12.5814 2.91626 12.7116L2.40465 12.3673L2 11.172ZM2.46511 11.1535L3.60463 10.6651H5.04646L5.72087 11.4232V12.6465L4.92089 13.6696V13.8604H6.14878V15.0232H2.46511V14.2278C2.94882 13.9441 4.02322 13.2046 4.44647 12.5162C4.36741 12.1394 4.15345 11.8651 3.98136 11.8651C3.87439 11.8651 3.38602 12.0232 3.00463 12.1441L2.74417 12.2326L2.46511 11.1535Z" fill="white"/>
<path fill-rule="evenodd" clip-rule="evenodd" d="M8.97694 9.90698H6.18628V15.4883H8.97694C9.71707 15.4883 10.4269 15.1942 10.9502 14.6709C11.4736 14.1476 11.7676 13.4377 11.7676 12.6976C11.7676 11.9575 11.4736 11.2477 10.9502 10.7244C10.4269 10.201 9.71707 9.90698 8.97694 9.90698ZM8.97694 10.3721H6.65139V15.0232H8.97694C9.59371 15.0232 10.1852 14.7781 10.6214 14.3421C11.0575 13.9059 11.3025 13.3145 11.3025 12.6976C11.3025 12.0809 11.0575 11.4894 10.6214 11.0532C10.1852 10.6171 9.59371 10.3721 8.97694 10.3721Z" fill="white"/>
</svg>

<svg xmlns="http://www.w3.org/2000/svg" width="24" height="24" fill="none" viewBox="0 0 24 24">
    <path fill="#fff" d="M20.605 9.442H22v6.977h-1.395zm-.931 3.721L16.186 7.58l-3.488 5.582h1.618l1.87-2.99 1.87 2.99z"/>
    <path fill="#fff" d="m14.13 16.418 1.223-2.4h1.666l1.223 2.4 1.898-3.72h-7.907z"/>
    <path fill="#fff" fill-rule="evenodd" d="M8.047 11.67v2.14c.028.092.186.283.628.283.544 0 1.232-.428 1.232-1.377 0-.944-.995-1.414-1.46-1.414h-.042a.365.365 0 0 0-.358.368m.279.255v1.605c.018.075.135.219.442.219.386 0 .87-.326.87-1.037 0-.712-.698-1.065-1.033-1.065h-.028c-.14 0-.251.125-.251.278M2 11.172l1.395-.8h1.786l1.005.967v1.563a3 3 0 0 1-.363.298c-.195.149-.372.284-.437.428h.8v1.86H2.549L2 15.232V14.21c.623-.446 1.916-1.442 2.135-1.842-.107-.037-.86.214-1.219.345l-.511-.345zm.465-.019 1.14-.488h1.441l.675.758v1.223l-.8 1.024v.19h1.228v1.163H2.465v-.795c.484-.284 1.558-1.023 1.981-1.712-.079-.377-.293-.65-.465-.65-.107 0-.595.157-.976.278l-.26.089z" clip-rule="evenodd"/>
    <path fill="#fff" fill-rule="evenodd" d="M8.977 9.907h-2.79v5.581h2.79a2.79 2.79 0 0 0 0-5.581m0 .465H6.65v4.651h2.326a2.326 2.326 0 0 0 0-4.65" clip-rule="evenodd"/>
</svg>
